static/fa/svgs/solid/object-group.svg

<svg xmlns="http://www.w3.org/2000/svg" viewBox="0 0 576 512"><!--! Font Awesome Free 6.1.1 by @fontawesome - https://fontawesome.com License - https://fontawesome.com/license/free (Icons: CC BY 4.0, Fonts: SIL OFL 1.1, Code: MIT License) Copyright 2022 Fonticons, Inc.--><path d="M128 160c0-17.7 14.3-32 32-32h128c17.7 0 32 14.3 32 32v96c0 17.7-14.3 32-32 32H160c-17.7 0-32-14.3-32-32v-96zm160 160c35.3 0 64-28.7 64-64v-32h64c17.7 0 32 14.3 32 32v96c0 17.7-14.3 32-32 32H288c-17.7 0-32-14.3-32-32v-32h32zM32 119.4C12.87 108.4 0 87.69 0 64 0 28.65 28.65 0 64 0c23.69 0 44.4 12.87 55.4 32h337.2c11-19.13 31.7-32 55.4-32 35.3 0 64 28.65 64 64 0 23.69-12.9 44.4-32 55.4v273.2c19.1 11 32 31.7 32 55.4 0 35.3-28.7 64-64 64-23.7 0-44.4-12.9-55.4-32H119.4c-11 19.1-31.71 32-55.4 32-35.35 0-64-28.7-64-64 0-23.7 12.87-44.4 32-55.4V119.4zM119.4 96c-5.6 9.7-13.7 17.8-23.4 23.4v273.2c9.7 5.6 17.8 13.7 23.4 23.4h337.2c5.6-9.7 13.7-17.8 23.4-23.4V119.4c-9.7-5.6-17.8-13.7-23.4-23.4H119.4z"/></svg>

<svg xmlns="http://www.w3.org/2000/svg" viewBox="0 0 576 512"><!--! Font Awesome Free 6.1.1 by @fontawesome - https://fontawesome.com License - https://fontawesome.com/license/free (Icons: CC BY 4.0, Fonts: SIL OFL 1.1, Code: MIT License) Copyright 2022 Fonticons, Inc. --><path d="M128 160C128 142.3 142.3 128 160 128H288C305.7 128 320 142.3 320 160V256C320 273.7 305.7 288 288 288H160C142.3 288 128 273.7 128 256V160zM288 320C323.3 320 352 291.3 352 256V224H416C433.7 224 448 238.3 448 256V352C448 369.7 433.7 384 416 384H288C270.3 384 256 369.7 256 352V320H288zM32 119.4C12.87 108.4 0 87.69 0 64C0 28.65 28.65 0 64 0C87.69 0 108.4 12.87 119.4 32H456.6C467.6 12.87 488.3 0 512 0C547.3 0 576 28.65 576 64C576 87.69 563.1 108.4 544 119.4V392.6C563.1 403.6 576 424.3 576 448C576 483.3 547.3 512 512 512C488.3 512 467.6 499.1 456.6 480H119.4C108.4 499.1 87.69 512 64 512C28.65 512 0 483.3 0 448C0 424.3 12.87 403.6 32 392.6V119.4zM119.4 96C113.8 105.7 105.7 113.8 96 119.4V392.6C105.7 398.2 113.8 406.3 119.4 416H456.6C462.2 406.3 470.3 398.2 480 392.6V119.4C470.3 113.8 462.2 105.7 456.6 96H119.4z"/></svg>
